public/icons/discord_icon.svg

<svg width="30" height="30" viewBox="0 0 30 30" fill="none" xmlns="http://www.w3.org/2000/svg">
<circle cx="15" cy="15" r="15" fill="white"/>
<path d="M20.7826 10.3113C19.3983 9.19689 17.208 9.00802 17.1141 9.00141C17.0427 8.99554 16.9713 9.012 16.9098 9.04852C16.8482 9.08504 16.7995 9.13981 16.7704 9.20524C16.7287 9.29923 16.6932 9.39591 16.6643 9.49463C17.5802 9.64941 18.705 9.96071 19.7228 10.5924C19.7616 10.6165 19.7953 10.648 19.822 10.6851C19.8486 10.7222 19.8677 10.7642 19.8781 10.8087C19.8885 10.8532 19.8901 10.8993 19.8827 10.9444C19.8753 10.9895 19.8591 11.0327 19.835 11.0715C19.8109 11.1103 19.7794 11.144 19.7422 11.1707C19.7051 11.1973 19.6631 11.2164 19.6186 11.2268C19.5741 11.2372 19.528 11.2388 19.4829 11.2314C19.4378 11.224 19.3947 11.2078 19.3558 11.1837C17.6063 10.0974 15.4212 10.0435 15 10.0435C14.5791 10.0435 12.3927 10.0978 10.6442 11.1833C10.6053 11.2074 10.5622 11.2236 10.5171 11.231C10.472 11.2384 10.4259 11.2369 10.3814 11.2265C10.2915 11.2054 10.2137 11.1496 10.165 11.0711C10.1164 10.9927 10.1009 10.8982 10.1219 10.8084C10.1429 10.7185 10.1988 10.6407 10.2772 10.592C11.295 9.96211 12.4198 9.64941 13.3357 9.49602C13.2828 9.3235 13.2348 9.21463 13.2313 9.20524C13.2024 9.13935 13.1534 9.08422 13.0915 9.04764C13.0295 9.01107 12.9576 8.9949 12.8859 9.00141C12.792 9.00837 10.6017 9.19689 9.19826 10.3263C8.46609 11.0038 7 14.9659 7 18.3913C7 18.4525 7.01635 18.511 7.04626 18.5638C8.05704 20.3412 10.8167 20.8056 11.4456 20.8261H11.4563C11.5112 20.8262 11.5654 20.8134 11.6143 20.7886C11.6633 20.7638 11.7057 20.7278 11.7381 20.6835L12.3736 19.8084C10.6577 19.3656 9.78122 18.6129 9.73113 18.568C9.66194 18.5069 9.61985 18.4209 9.61411 18.3288C9.60837 18.2367 9.63945 18.1461 9.70052 18.0769C9.76159 18.0077 9.84764 17.9656 9.93975 17.9599C10.0319 17.9541 10.1225 17.9852 10.1917 18.0463C10.2118 18.0654 11.8261 19.4348 15 19.4348C18.1791 19.4348 19.7934 18.0598 19.8097 18.0463C19.8791 17.9856 19.9698 17.955 20.0617 17.9612C20.1537 17.9673 20.2394 18.0097 20.3002 18.079C20.3302 18.1131 20.3533 18.1529 20.368 18.196C20.3827 18.239 20.3887 18.2846 20.3858 18.33C20.3829 18.3754 20.3711 18.4198 20.351 18.4606C20.331 18.5015 20.303 18.538 20.2689 18.568C20.2188 18.6129 19.3423 19.3656 17.6264 19.8084L18.2623 20.6835C18.2946 20.7278 18.337 20.7638 18.3859 20.7885C18.4348 20.8133 18.4888 20.8262 18.5437 20.8261H18.5541C19.1837 20.8056 21.943 20.3409 22.9541 18.5638C22.9837 18.511 23 18.4525 23 18.3913C23 14.9659 21.5339 11.0042 20.7826 10.3113ZM12.7391 17C12.0664 17 11.5217 16.3774 11.5217 15.6087C11.5217 14.84 12.0664 14.2174 12.7391 14.2174C13.4118 14.2174 13.9565 14.84 13.9565 15.6087C13.9565 16.3774 13.4118 17 12.7391 17ZM17.2609 17C16.5882 17 16.0435 16.3774 16.0435 15.6087C16.0435 14.84 16.5882 14.2174 17.2609 14.2174C17.9336 14.2174 18.4783 14.84 18.4783 15.6087C18.4783 16.3774 17.9336 17 17.2609 17Z" fill="#4E4B66"/>
</svg>

<svg width="30" height="30" fill="none" xmlns="http://www.w3.org/2000/svg"><circle cx="15" cy="15" r="15" fill="#fff"/><path d="M20.783 10.311c-1.385-1.114-3.575-1.303-3.669-1.31a.345.345 0 0 0-.344.204c-.041.094-.077.19-.106.29.916.154 2.041.466 3.059 1.097a.35.35 0 0 1 .02.579.348.348 0 0 1-.387.013c-1.75-1.087-3.935-1.14-4.356-1.14-.42 0-2.607.054-4.356 1.14a.348.348 0 0 1-.367-.592c1.018-.63 2.143-.943 3.059-1.096a2.69 2.69 0 0 0-.105-.29.343.343 0 0 0-.345-.206c-.094.007-2.284.196-3.688 1.325C8.466 11.004 7 14.966 7 18.391c0 .062.016.12.046.173 1.011 1.777 3.77 2.242 4.4 2.262h.01a.348.348 0 0 0 .282-.143l.636-.875c-1.716-.442-2.593-1.195-2.643-1.24a.348.348 0 1 1 .46-.522c.02.02 1.635 1.389 4.809 1.389 3.18 0 4.793-1.375 4.81-1.389a.347.347 0 0 1 .459.522c-.05.045-.927.798-2.643 1.24l.636.875a.346.346 0 0 0 .282.143h.01c.63-.02 3.389-.485 4.4-2.262A.351.351 0 0 0 23 18.39c0-3.425-1.466-7.387-2.217-8.08ZM12.739 17c-.673 0-1.217-.623-1.217-1.391 0-.769.544-1.392 1.217-1.392s1.217.623 1.217 1.392c0 .768-.544 1.391-1.217 1.391Zm4.522 0c-.673 0-1.217-.623-1.217-1.391 0-.769.544-1.392 1.217-1.392s1.217.623 1.217 1.392c0 .768-.544 1.391-1.217 1.391Z" fill="#4E4B66"/></svg>
